!!!COM: Palestrina, Giovanni Perluigi da
!!!OPR: De beata virgine (1570)
!!!OTL: Agnus II
**kern	**kern	**kern	**kern	**kern	**kern
*Ibass	*Itenor	*Itenor	*Icalto	*Icant	*Icant
!Bassus	!Tenor 2	!Tenor 1	!Altus	!Cantus 2	!Cantus 1
*clefF4	*clefGv2	*clefGv2	*clefG2	*clefG2	*clefG2
*k[b-]	*k[b-]	*k[b-]	*k[b-]	*k[b-]	*k[b-]
*?:X	*?:X	*?:X	*?:X	*?:X	*?:X
*M4/2	*M4/2	*M4/2	*M4/2	*M4/2	*M4/2
=1	=1	=1	=1	=1	=1
0C	0c	0r	0e	0g	0r
=2	=2	=2	=2	=2	=2
0F	0A	0c	2.f	1a	0r
.	.	.	4g	.	.
.	.	.	4a	[1cc	.
.	.	.	4b-	.	.
.	.	.	[2a	.	.
=3	=3	=3	=3	=3	=3
0D	0F	1d	4a]	2cc]	0r
.	.	.	4g	.	.
.	.	.	4f	4b-	.
.	.	.	4e	4a	.
.	.	[1f	1d	1b	.
=4	=4	=4	=4	=4	=4
0C	0G	2f]	2r	[0cc	0g
.	.	4e	4g	.	.
.	.	4d	4f	.	.
.	.	1e	4e	.	.
.	.	.	4d	.	.
.	.	.	4c	.	.
.	.	.	4B-	.	.
=5	=5	=5	=5	=5	=5
2.F	0F	1f	4A	0cc]	1a
.	.	.	4F	.	.
.	.	.	2f	.	.
4G	.	.	.	.	.
2A	.	1f	1c	.	[1cc
2F	.	.	.	.	.
=6	=6	=6	=6	=6	=6
0G	0r	0d	0g	1r	2cc]
.	.	.	.	.	4b-
.	.	.	.	.	4a
.	.	.	.	1dd	1b
=7	=7	=7	=7	=7	=7
0C	0c	2.g	1e	1ee	1cc
.	.	4f	.	.	.
.	.	4e	1c	1gg	1g
.	.	4d	.	.	.
.	.	2e	.	.	.
=8	=8	=8	=8	=8	=8
0r	0A	2.c	2r	2ff	1a
.	.	.	2.cc	2.ee	.
.	.	4d	.	.	.
.	.	1e	.	.	[1cc
.	.	.	4b-	4dd	.
.	.	.	[2a	4cc	.
.	.	.	.	4b-	.
=9	=9	=9	=9	=9	=9
0r	0F	1f	4a]	2a	2cc]
.	.	.	4g	.	.
.	.	.	4f	2.dd	2b-
.	.	.	4e	.	.
.	.	1r	2f	.	1a
.	.	.	.	4cc	.
.	.	.	2e	[2cc	.
=10	=10	=10	=10	=10	=10
1r	0G	2r	1d	2cc]	0g
.	.	2d	.	2b	.
1C	.	1e	1c	[1cc	.
=11	=11	=11	=11	=11	=11
1F	0F	1.f	2r	1cc]	0a
.	.	.	2c	.	.
1D	.	.	1f	2r	.
.	.	[2d	.	2f	.
=12	=12	=12	=12	=12	=12
1G	0r	2d]	2d	1b-	0r
.	.	4c	2e	.	.
.	.	4B-	.	.	.
2F	.	2c	1f	2a	.
2F	.	[2F	.	2a	.
=13	=13	=13	=13	=13	=13
2D	0r	2F]	0f	2.dd	2r
2BB-	.	2.B-	.	.	1f
.	.	.	.	4ee	.
2.D	.	.	.	1ff	.
.	.	4A	.	.	.
.	.	2d	.	.	[2b-
4E	.	.	.	.	.
=14	=14	=14	=14	=14	=14
1F	0F	1c	2r	0ff	2b-]
.	.	.	1c	.	1a
1r	.	1r	.	.	.
.	.	.	[2f	.	2dd
=15	=15	=15	=15	=15	=15
0r	0A	2r	2f]	0r	2cc
.	.	1c	2e	.	2a
.	.	.	1a	.	[1cc
.	.	[2f	.	.	.
=16	=16	=16	=16	=16	=16
0r	[0c	2f]	2a	0r	0cc]
.	.	2e	1g	.	.
.	.	1a	.	.	.
.	.	.	[2f	.	.
=17	=17	=17	=17	=17	=17
1C	0c]	1g	4f]	1r	0cc
.	.	.	8e	.	.
.	.	.	8d	.	.
.	.	.	2e	.	.
1F	.	2f	1a	2r	.
.	.	[2f	.	2cc	.
=18	=18	=18	=18	=18	=18
2D	0d	4f]	2r	1ff	0r
.	.	4e	.	.	.
2D	.	4d	2f	.	.
.	.	4c	.	.	.
1G	.	4B-	1b-	2dd	.
.	.	4A	.	.	.
.	.	4G	.	2dd	.
.	.	4F	.	.	.
=19	=19	=19	=19	=19	=19
2C	0c	2G	2g	2ee	1r
1F	.	4F	2a	2ff	.
.	.	4G	.	.	.
.	.	4A	2a	1cc	2r
.	.	4B-	.	.	.
2E	.	[2c	2g	.	2cc
=20	=20	=20	=20	=20	=20
1D	0r	2c]	2f	1dd	1ff
.	.	2B	2d	.	.
1C	.	1c	4e	2g	1ee
.	.	.	4f	.	.
.	.	.	4g	[2cc	.
.	.	.	4e	.	.
=21	=21	=21	=21	=21	=21
2.F	0c	2.A	1f	4cc]	2cc
.	.	.	.	4b-	.
.	.	.	.	1a	1ff
4G	.	4B-	.	.	.
4A	.	1c	1r	.	.
4B-	.	.	.	.	.
[2c	.	.	.	2g	2ee
=22	=22	=22	=22	=22	=22
2c]	0d	0G	2r	1g	0dd
4B-	.	.	2d	.	.
4A	.	.	.	.	.
1B	.	.	1g	2r	.
.	.	.	.	[2g	.
=23	=23	=23	=23	=23	=23
1c	0e	1g	2e	2g]	2cc
.	.	.	1c	1gg	2g
1C	.	2e	.	.	1cc
.	.	[2c	[2cc	2ee	.
=24	=24	=24	=24	=24	=24
1F	0f	2c]	2cc]	1cc	1a
.	.	2.f	2a	.	.
2D	.	.	1a	2ff	1dd
.	.	4g	.	.	.
2D	.	[2a	.	2dd	.
=25	=25	=25	=25	=25	=25
2.A	0e	2a]	1.a	4ee	2cc
.	.	.	.	4ff	.
.	.	2.A	.	2.ee	2cc
4B-	.	.	.	.	.
2c	.	.	.	.	2.ee
.	.	4B-	.	4dd	.
2C	.	2c	2g	[2cc	.
.	.	.	.	.	4ff
=26	=26	=26	=26	=26	=26
0G	0d	4d	1g	2cc]	1gg
.	.	4G	.	.	.
.	.	1g	.	4b-	.
.	.	.	.	4a	.
.	.	.	2r	1b	2dd
.	.	2d	2g	.	[2gg
=27	=27	=27	=27	=27	=27
1C	[0c	4e	2g	1cc	4gg]
.	.	4d	.	.	4ff
.	.	4c	2.cc	.	4ee
.	.	4B-	.	.	4dd
1F	.	1A	.	1r	2.cc
.	.	.	4b-	.	.
.	.	.	2a	.	.
.	.	.	.	.	4dd
=28	=28	=28	=28	=28	=28
1C	1c]	2r	1.g	0cc	1ee
.	.	2c	.	.	.
1r	1r	2c	.	.	2r
.	.	[2f	[2a	.	2cc
=29	=29	=29	=29	=29	=29
0r	0r	4f]	4a]	[0a	2cc
.	.	4e	4g	.	.
.	.	1d	4f	.	1ff
.	.	.	4e	.	.
.	.	.	2d	.	.
.	.	2c#	2e	.	[2ee
=30	=30	=30	=30	=30	=30
0r	0r	1d	1f	0a]	2ee]
.	.	.	.	.	1dd
.	.	1A	1e	.	.
.	.	.	.	.	2cc#
=31	=31	=31	=31	=31	=31
2r	0r	2.B-	1d	0f	[0dd
2BB-	.	.	.	.	.
.	.	4c	.	.	.
2BB-	.	1d	2r	.	.
[2B-	.	.	[2d	.	.
=32	=32	=32	=32	=32	=32
4B-]	0r	2G	2d]	1g	1dd]
4A	.	.	.	.	.
1G	.	2B-	2d	.	.
.	.	2A	2e	1a	1r
2F	.	[2c	2f	.	.
=33	=33	=33	=33	=33	=33
1G	0r	2c]	1d	0g	1r
.	.	2B	.	.	.
1C	.	1c	1e	.	2r
.	.	.	.	.	2cc
=34	=34	=34	=34	=34	=34
1F	[0c	2r	0a	4f	2cc
.	.	.	.	4g	.
.	.	2F	.	4a	1ff
.	.	.	.	4b-	.
1r	.	4F	.	[1cc	.
.	.	4G	.	.	.
.	.	4A	.	.	4ee
.	.	4B-	.	.	4dd
=35	=35	=35	=35	=35	=35
1C	0c]	4c	2.g	1cc]	1.ee
.	.	4d	.	.	.
.	.	4e	.	.	.
.	.	4f	4f	.	.
2C	.	2g	2e	2r	.
[2F	.	2f	2c	2cc	2a
=36	=36	=36	=36	=36	=36
4F]	[0A	4a	1f	2cc	2cc
4E	.	4g	.	.	.
1D	.	4f	.	1ff	2dd
.	.	4e	.	.	.
.	.	2d	1r	.	[1a
2C#	.	2e	.	[2ee	.
=37	=37	=37	=37	=37	=37
1D	0A]	1f	0r	2ee]	1a]
.	.	.	.	1dd	.
1AA	.	1e	.	.	2r
.	.	.	.	2cc#	[2a
=38	=38	=38	=38	=38	=38
1D	[0F	2.f	2r	1dd	2a]
.	.	.	2f	.	2a
.	.	4e	.	.	.
1BB-	.	2d	2f	1r	1dd
.	.	2B-	[2b-	.	.
=39	=39	=39	=39	=39	=39
1F	0F]	[0c	2b-]	2r	2cc
.	.	.	4a	2cc	2.f
.	.	.	4g	.	.
1r	.	.	1a	2cc	.
.	.	.	.	.	4g
.	.	.	.	[2ff	4a
.	.	.	.	.	4b-
=40	=40	=40	=40	=40	=40
1C	[0G	0c]	2.g	2ff]	2.cc
.	.	.	.	4ee	.
.	.	.	4f	4dd	8b-
.	.	.	.	.	8a
1C	.	.	2e	1ee	2g
.	.	.	2c	.	[2cc
=41	=41	=41	=41	=41	=41
1G	0G]	2r	1d	2dd	4cc]
.	.	.	.	.	8b-
.	.	.	.	.	8a
.	.	2G	.	2.gg	2b
1C	.	2G	1e	.	[1cc
.	.	.	.	4ff	.
.	.	[2c	.	4ee	.
.	.	.	.	4dd	.
=42	=42	=42	=42	=42	=42
0F	0A	2c]	1f	4cc	0cc]
.	.	.	.	4b-	.
.	.	2c	.	4a	.
.	.	.	.	4g	.
.	.	1c	2c	1f	.
.	.	.	[2f	.	.
=43	=43	=43	=43	=43	=43
0C	0G	1c	2f]	0g	1r
.	.	.	4e	.	.
.	.	.	4d	.	.
.	.	2r	1e	.	[1cc
.	.	2c	.	.	.
=44	=44	=44	=44	=44	=44
2.F	[0F	2c	[0f	0a	2cc]
.	.	2.f	.	.	2cc
4E	.	.	.	.	.
1D	.	.	.	.	2.ff
.	.	4e	.	.	.
.	.	4d	.	.	.
.	.	4c	.	.	4ee
=45	=45	=45	=45	=45	=45
0BB-	1F_	2d	1f_	0b-	2dd
.	.	2d	.	.	2b-
.	1F_	1B-	1f_	.	1dd
=46	=46	=46	=46	=46	=46
0F	0F]	0c	0f]	0a	0cc
==	==	==	==	==	==
*-	*-	*-	*-	*-	*-
!!!CDT: 1525/^1526/-1594/2/2
!!!OCY: Italia
!!!AGN: Mass (Paraphrase)
!!!AST: renaissance, vocal
!!!ASW: Gregorian Mass
!!!PWK: Masses, Book 3
!!!RNB: Cadence finals: G,D,C,E,F
!!!YOR: Le Opere Complete, v. 6, p. 175
!!!YOO: Rome, Italy: Fratelli Scalera
!!!END: 1992//
!!!EED: John Miller
!!!YEC: Copyright 2000, John Miller
!!!YEN: United States of America
!!!YEM: Rights to all derivative electronic formats reserved.
!!!YEM: Refer to licensing agreement for further details.
!!!YEM: This file must be accompanied by the licensing agreement.
!!!YEM: A copy of the licensing agreement may be found at http://www.music-cog.ohio-state.edu/HumdrumDatabases/Palestrina/license.txt
!!!EMD: converted to Humdrum by Bret Aarden
